X: 9057
T: Da Full Rigged Ship
R: jig
M: 6/8
K: Aminor
|:eaa egg eaa b2 a|e2 ^f g2 f eag fed|
eaa egg eaa b2 a|ege {g}edB A3 A3:|
|:efe dBG A2 B c2 A|~B3 ~B3 Bcd E3|
efe dBG A2 B c2 d|efe dBG A3 A3:|
|:~E3 ~E3 ~E3 c3|~E3 E2 D E2 F GEC|
~E3 ~E3 ~E3 c2 d|efe dBG A3 A3:|

